X:1
T:Title
%%score ( 1 2 ) { 3 | 4 }
L:1/8
Q:1/4=110
M:4/4
K:C
V:1 treble nm="Grand Piano, Soprano"
V:2 treble 
V:3 treble nm="Choir Pad, Tripoli, 87.87.87"
V:4 bass 
V:1
 [EG]3 [DF] [CE]2 [Ec]2 | [FA]2 [Fc]2 [EG]2 [CE]2 | [B,D]3 [CE] [DF]2 [FA]2 | [EG]2 [CE]2 [B,D]4 | %4
w: By~Zimri~Mullen~Parvin,~1872 * * *||||
 [CE]3 [DF] [EG]2 [Ec]2 | [FA]2 [Fc]2 [EG][DF] [CE]2 | [CG]2 [Ec]2 [FA]2 [Ad]2 | %7
w: |||
 [Gc]2 [FB]2 [Ec]4 | [Ec]2 [EG]2 [FA]2 [Fc]2 | z4 .B2 z2 | G2 [Gc]2 [FA]2 [Fd]2 | %11
w: ||||
 [Ec]2 [DB]2 [Ec]4- | [Ec]4 z4 |] %13
w: ||
V:2
 x8 | x8 | x8 | x8 | x8 | x8 | x8 | x8 | x8 | [^Fd]2 [Fc]2 G-[GA] G2 | x8 | x8 | x8 |] %13
V:3
 C3 G, G,2 C2 | C2[K:bass] A,2 C2 G,2 | G,3 G, G,2 B,2 | C2 G,2 G,4 | G,3 G,[K:treble] C2 C2 | %5
 C2 A,2 C2 G,2 | C2 C2 C2 F2 | E2 D2 C4 | C2 C2 C2 A,2 | A,2 D2 DC B,2 | C2 C2 C2[K:bass] A,2 | %11
 G,2 G,2 G,4- | G,4 z4 |] %13
V:4
 C,3 C, C,2 C,2 | F,2 F,2 C,2 C,2 | z4 z2 G,2 | G,2 z2 z4 | C,3 C, C,2 C,2 | F,2 F,2 C,2 C,2 | %6
 E,2 C,2 F,2 D,2 | G,2 G,,2 C,4 | C,2 C,2 F,2 F,2 | D,2 D,2 G,2 G,2 | E,2 E,2 F,2 F,2 | %11
 z2 G,,2 C,4- | C,4 z4 |] %13

